X:63
T: Graf und Nonne (Die Nonne)
N: Q01559
O: Suedosteuropa, Jugoslawien, Batschka
R: Ballade, Standesunterschied, vergebliche Werbung, Liebes - Lied
M: 2/4
L: 1/16
K: G
D2 | G2G2F2E2 | E2D2D2
D2 | G2G2A2D2 | B4z2
d2 | B3BB2B2 | B2d2d2
B2 | c2B2A2G2 | F2E2D2
DD | B2B2A2A2 | G4z2
d2 | B3BB2B2 | B2d2d2
B2 | c2B2A2G2 | F2E2D2
DD | B2B2A2A2 | G4z2

@@@ Tune index: 1773
